X:101
T:He Leadeth Me
% Four-part piano arrangement for standard notation.
C:Rev. Joseph H. Gilmore/William B. Bradbury
S:Source "The One Hundred and One Best Songs" - The Cable Company - 1919 - Chicago, Illinois
M:4/4
L:1/4
Q:1/4=100
%%staves [(1 2) (3 4)]
%%vocalfont Times-Roman 12
K:D
V:1 clef=treble
A | F>E D A | B G G B | A>F F E/D/ | F F HE
w:1.~He lead-eth me! O bless-ed tho't! O words with heav'n-ly* com-fort fraught!
w:2.~Some-times 'mid scenes of deep-est gloom, Some-times where E-den's* bow-ers bloom,
w:3.~Lord, I would clasp Thy hand in mine, Nor ev-er mur-mur* nor re-pine;
w:4.~And when my task on earth is done, When, by Thy grace, the* vic-t'ry's won,
V:2 clef=treble
F | D>A, A, D | D D D G | F>D D D | D D HC
V:3 clef=bass
%%MIDI transpose -24
%%jsastem=dn
a | a>g f f | g b b d' | d'>a a g/f/ | a a Ha
V:4 clef=bass
%%MIDI transpose -24
%%jsastem=dn
d | d>d d d | g g g g | d>d d d | A A HA
V:1
A | F>E D A | B G Hd c/B/ | A F F/E/ D/E/ | F>E D
w:What-e'er I do, wer-e'er I be, Still* 'tis God's hand* that* lead-eth me.
w:By wa-ters still, o'er troub-led sea, Still* 'tis His hand* that* lead-eth me.
w:Con-tent, what-ev-er lot I see, Since* 'tis my God* that* lead-eth me.
w:E'en death's cold wave I will not flee, Since* God thro' Jor\-* don* lead-eth me.
V:2
C | D>A, A, D | D G HG G | F D D/C/ B,/C/ | D>C D
V:3
a | a>g f f | g b Hb d' | d' a b f | a>g f
V:4
A | d>d d d | g g Hg g | d d B B | A>A d
V:1
"^REFRAIN."A |: A d c e | d c/B/ A B | A F F/E/ D/E/ |1 F F HE A :|2 F>E HD |]
w:He lead-eth me! He lead-eth* me! By His own hand* He* lead-eth me; His
w:* faith-ful fol-low'r I would* be, For by His hand* He* **** lead-eth me.
V:2
F |: F F E A | A A/G/ F G | F D D/C/ B,/C/ |1 D D HC E :|2 D>C HD |]
V:3
a |: d' a a c' | d' d' d' d' | d' a b f |1 a a Ha c' :|2 a>g Hf |]
V:4
d |: d f a g | f g d d | d d B B |1 A A HA A :|2 A>A Hd |]
